X: 418
T: Mary O'Sullivan
N:"Moderate" "collected by F.O'Neill"
N:Irish title: maire ni suillea.bai.n
B:O'Neill's 418
Z:Transcribed by henrik.norbeck@mailbox.swipnet.se
M:C
L:1/8
K:G
G | G2 G>A c2 dc | A2 DE {G}F2 D2 | G2 AB c2 dc | A2 G>A G3 D |
G2 G>A c2 d>c | A2 A>G {G}F2 D2 | G2 A>B cAdc | A2 G>A G3 ||
B | d2 ef g2 fg | a2 bg e2 dB | d2 ef g2 fg | a2 b>g g3 B |
d2 ef g2 fg | a2 b>a gfed | gefd e2 dB | A2 G>A G3 ||


